addons/godot-flexbox/assets/dark/AlignItemsStretchColumnIcon.svg

<svg xmlns="http://www.w3.org/2000/svg" width="16" height="16" fill="none" data-wf-icon="AlignItemsStretchColumnIcon" viewBox="0 0 24 24"><path fill="#d6d6d6" stroke="#d6d6d6" d="M3.75 5.25h16.5v4.5H3.75v-4.5Zm0 7.5h16.5v4.5H3.75v-4.5Z"/><path fill="#d6d6d6" d="M0 0h1.5v24H0V0Zm22.5 0H24v24h-1.5V0Z"/></svg>

<svg data-wf-icon="AlignItemsStretchColumnIcon" width="16" height="16" viewBox="0 0 24 24" fill="none" xmlns="http://www.w3.org/2000/svg"><path d="M3.75 5.25H20.25V9.75H3.75V5.25ZM3.75 12.75H20.25V17.25H3.75V12.75Z" fill="#d6d6d6" stroke="#d6d6d6"></path><path d="M0 0H1.5V24H0V0ZM22.5 0H24V24H22.5V0Z" fill="#d6d6d6"></path></svg>
